src/bookmark.svg

<svg viewBox="0 0 16 16" fill="none" xmlns="http://www.w3.org/2000/svg"><path d="M12 3v8.92l-3.38-2.7-.62-.5-.62.5L4 11.92V3h8Zm1-1H3v12l5-4 5 4V2Z" fill="#111111"/></svg>

<svg viewBox="0 0 16 16" fill="none" xmlns="http://www.w3.org/2000/svg"><path d="M12 3V11.92L8.62 9.22L8 8.72L7.38 9.22L4 11.92V3H12ZM13 2H3V14L8 10L13 14V2Z" fill="#111111"/></svg>
